!!!COM: Palestrina, Giovanni Perluigi da
!!!OPR: Missa Sine nomine (1591)
!!!OMD: Kyrie
!!!OTL: First Section
**kern	**kern	**kern	**kern	**kern	**kern
*Ibass	*Itenor	*Itenor	*Icalto	*Icant	*Icant
!Bassus	!Tenor 2	!Tenor 1	!Altus	!Cantus 2	!Cantus 1
*clefF4	*clefGv2	*clefGv2	*clefG2	*clefG2	*clefG2
*k[b-]	*k[b-]	*k[b-]	*k[b-]	*k[b-]	*k[b-]
*G:dor	*G:dor	*G:dor	*G:dor	*G:dor	*G:dor
*M4/2	*M4/2	*M4/2	*M4/2	*M4/2	*M4/2
=1	=1	=1	=1	=1	=1
1D	1r	1r	0r	0r	0r
2.F	1D	[1A	.	.	.
4E	.	.	.	.	.
=2	=2	=2	=2	=2	=2
4D	1.F	1A]	0r	0r	0r
4C	.	.	.	.	.
1D	.	.	.	.	.
.	.	[1A	.	.	.
4C	4E	.	.	.	.
4BB	4D	.	.	.	.
=3	=3	=3	=3	=3	=3
2C#	2E	2A]	1r	0r	0r
2D	2F	2A	.	.	.
4GG	1G	2B-	1d	.	.
4AA	.	.	.	.	.
4BB-	.	2B-	.	.	.
4C	.	.	.	.	.
=4	=4	=4	=4	=4	=4
4D	2F	0A	2.f	1d	0a
4E	.	.	.	.	.
2.F	2.D	.	.	.	.
.	.	.	4e	.	.
.	.	.	4d	[1f	.
4E	4E	.	4c	.	.
2D	4F	.	[2d	.	.
.	4G	.	.	.	.
=5	=5	=5	=5	=5	=5
1AA	1.A	0r	2d]	2f]	1.a
.	.	.	4c	4e	.
.	.	.	4B	4d	.
1r	.	.	2c#	2e	.
.	2D	.	2d	2f	2a
=6	=6	=6	=6	=6	=6
1r	1d	1r	4G	1g	2b-
.	.	.	4A	.	.
.	.	.	4B-	.	2b-
.	.	.	4c	.	.
1D	1r	2r	2.d	2.f	[1a
.	.	2A	.	.	.
.	.	.	4e	4e	.
=7	=7	=7	=7	=7	=7
2D	1r	2A	2f	2d	0a]
2C#	.	2A	2.e	2e	.
1D	1A	2F	.	2.f	.
.	.	.	4d	.	.
.	.	2D	[2d	.	.
.	.	.	.	4g	.
=8	=8	=8	=8	=8	=8
1AA	2A	1E	2d]	1a	2r
.	2A	.	2c#	.	2a
1BB-	2F	1D	1d	2r	2a
.	2D	.	.	2dd	2g
=9	=9	=9	=9	=9	=9
1AA	1E	1r	2r	2dd	1a
.	.	.	2e	2cc#	.
1r	2.D	2r	[1f	1dd	1a
.	.	2d	.	.	.
.	4E	.	.	.	.
=10	=10	=10	=10	=10	=10
0r	4F	2d	2f]	2a	0r
.	4G	.	.	.	.
.	2A	2c#	2e	2a	.
.	2D	2d	2f	2a	.
.	2d	2B-	2d	2g	.
=11	=11	=11	=11	=11	=11
0r	2d	1A	1e	1a	1r
.	2c#	.	.	.	.
.	1d	1D	1f	1a	2r
.	.	.	.	.	2dd
=12	=12	=12	=12	=12	=12
1r	2G	0r	1e	2b-	2dd
.	2A	.	.	2a	2cc#
2r	2.B-	.	[1d	2f	1dd
2G	.	.	.	[2b-	.
.	4c	.	.	.	.
=13	=13	=13	=13	=13	=13
2G	2d	0r	0d]	2b-]	2g
2F#	2D	.	.	1a	2a
1G	4G	.	.	.	1b-
.	4A	.	.	.	.
.	4B-	.	.	[2g	.
.	4c	.	.	.	.
=14	=14	=14	=14	=14	=14
1D	1d	0r	2r	4g]	[0a
.	.	.	.	4f	.
.	.	.	2d	4f	.
.	.	.	.	8e	.
.	.	.	.	8d	.
2.A	1r	.	2d	1e	.
.	.	.	2c#	.	.
4G	.	.	.	.	.
=15	=15	=15	=15	=15	=15
2F	0r	2r	1d	1f	1a]
2D	.	2d	.	.	.
1E-	.	2d	1G	2.g	2r
.	.	2c	.	.	2g
.	.	.	.	4a	.
=16	=16	=16	=16	=16	=16
1D	1r	1d	2r	2b-	2g
.	.	.	2A	2a	2f#
2.GG	2r	1d	2B-	[1dd	2g
.	2G	.	2c	.	[2b-
4AA	.	.	.	.	.
=17	=17	=17	=17	=17	=17
4BB-	2G	2r	1.d	0dd]	2b-]
4C	.	.	.	.	.
2D	2F#	2d	.	.	2.a
1GG	1G	2B-	.	.	.
.	.	.	.	.	4g
.	.	2G	2d	.	[2g
=18	=18	=18	=18	=18	=18
2r	1D	1A	1d	1r	2g]
2D	.	.	.	.	2f#
2D	1E-	1G	2B-	2r	2.g
2C	.	.	2G	2g	.
.	.	.	.	.	4a
=19	=19	=19	=19	=19	=19
1D	2D	1r	0d	2g	2b-
.	2d	.	.	2f#	2a
2.GG	2B-	2r	.	2g	1g
.	2G	2G	.	[2b-	.
4AA	.	.	.	.	.
=20	=20	=20	=20	=20	=20
4BB-	1d	2G	2r	2b-]	2r
4C	.	.	.	.	.
2D	.	2F#	2d	2a	2a
[1GG	2.d	1G	2B-	2g	2b-
.	.	.	2G	[2b-	2b-
.	4c	.	.	.	.
=21	=21	=21	=21	=21	=21
1GG]	1B-	0D	0d	4b-]	1g
.	.	.	.	4a	.
.	.	.	.	1g	.
1D	1A	.	.	.	1a
.	.	.	.	2f#	.
=22	=22	=22	=22	=22	=22
[0GG	[0G	[0D	[0d	[0g	[0b
=23	=23	=23	=23	=23	=23
0GG]	0G]	0D]	0d]	0g]	0b]
*-	*-	*-	*-	*-	*-
!!!CDT: 1525/^1526/-1594/2/2
!!!OCY: Italia
!!!AGN: Mass (Parody)
!!!AST: renaissance, vocal
!!!ASW: Motet (unidentified)
!!!PWK: Masses, Book 1
!!!RNB: Cadence finals: D
!!!YOR: Le Opere Complete, v. 1, p. 182
!!!YOO: Rome, Italy: Fratelli Scalera
!!!END: 1992//
!!!EED: John Miller
!!!YEC: Copyright 2000, John Miller
!!!YEN: United States of America
!!!YEM: Rights to all derivative electronic formats reserved.
!!!YEM: Refer to licensing agreement for further details.
!!!YEM: This file must be accompanied by the licensing agreement.
!!!YEM: A copy of the licensing agreement may be found at http://www.music-cog.ohio-state.edu/HumdrumDatabases/Palestrina/license.txt
!!!EMD: converted to Humdrum by Bret Aarden
